X:1
T:Spiritus Domini
T:Spiritus Domini
%%score [ 1 2 3 4 ]
L:1/8
Q:1/4=120
M:none
K:F
V:1 treble nm="S"
V:2 treble nm="A"
V:3 treble-8 nm="T"
V:4 bass nm="B"
V:1
 F4 F2 F2 G4 F2 F4 F2 F4 F2 F4 F2 E2 G4 A4 |[M:2/2] A6 A2 | A6 A2 | G6 G2 | G6 G2 | F6 F2 | D6 D2 | %7
w: Spi- ri- tus Do- mi- ni re- ple- vit or- bem ter- ra- rum;|al- le-|lu- ia,|al- le-|lu- ia,|al- le-|lu- ia,|
 F6 F2 | G6 G2 | G2 G2 G2 G2 | F4 F2 F2 | F8 | F2 F4 F2 F4 F2 F2 G4 F2 F4 F2 F4 F2 F4 F2 E2 G4 A4 | %13
w: al- le-|lu- ia,|al- le- lu- ia,|al- le- lu-|ia.|Ex hoc quod con- ti- net om- ni- a, sci- en- ti- am ha- bet vo- cis.|
 F4 F2 E2 G4 A4 A2 A2 B2 A2 A4 A2 A2 A4 G2 A2 G4 F4 | %14
w: Glo- ri- a Pa- tri, et Fi- * li- o, et Spi- ri- tu- i Sanc- to.|
"^R  \ne   \np\ne\nt\ni\nt\nu\nr" F4 F2 F2 E2 G4 A2 A2 | %15
w: Spi- ri- tus Pa- ra- cli- tus;|
"^R  \ne   \np\ne\nt\ni\nt\nu\nr" F2 F4 F2 E2 G4 A2 A2 |] %16
w: do- ce- bit vos om- ni- a.|
V:2
 F4 F2 F2 D4 C2 C4 D2 D4 D2 D4 D2 E2 E4 E4 |[M:2/2] F3 E D3 C | F3 E D3 C | G3 F E3 D | G3 F E3 D | %5
w: Spi- ri- tus Do- mi- ni re- ple- vit or- bem ter- ra- rum;|Al- le- lu- ia,|al- le- lu- ia,|al- le- lu- ia,|al- le- lu- ia,|
 F4 D4 | F4 D4 | F2 E2 D2 C2 | C2 D2 E2 F2 | G2 F2 E2 D2 | F2 E2 F2 G2 | A8 | %12
w: al- le-|lu- ia,|al- le- lu- ia,|al- le- lu- ia,|al- le- lu- ia,|al- le- lu- *|ia.|
 F2 F4 F2 F4 F2 F2 D4 C2 C4 D2 D4 D2 D4 D2 E2 E4 E4 | %13
w: Ex hoc quod con- ti- net om- ni- a, sci- en- ti- am ha- bet vo- cis.|
 D4 D2 E2 E4 E4 F2 F4 F2 F4 F2 F2 F4 G2 F2 F2 E2 F4 | %14
w: Glo- ri- a Pa- tri, et Fi- li- o, et Spi- ri- tu- i Sanc- * to.|
"^A\nl\nl\ne\nl\nu\ni\na" D4 D2 D2 E2 E4 E2 E2 |"^A\nl\nl\ne\nl\nu\ni\na" D2 D4 D2 E2 E4 E2 E2 |] %16
w: Spi- ri- tus Pa- ra- cli- tus;|do- ce- bit vos om- ni- a.|
V:3
 F4 F2 F2 B4 A2 A4 A2 A4 A2 A4 A2 =B2 B4 c4 |[M:3/2] (3A4 F4 A4 | (3:2:2c8 f4 | (3:2:2d8 d4 | %4
w: Spi- ri- tus Do- mi- ni re- ple- vit or- bem ter- ra- rum;|Al- le- lu-|ia, al-|le- lu-|
 (3d4 B4 G4 | (3A4 F4 c4 | (3:2:2d4 d2 (3:2:2B4 A2 | (3:2:2d4 A2 (3:2:2A4 F2 | (3G4 c4 =B4 | %9
w: ia, al- le-|lu- ia, al-|le- lu- ia, al-|le- lu- ia, al-|le- lu- *|
 (3:2:1c6 (3:2:1c6 | (3:2:1A6 (3:2:2A4 B2 | c8 | %12
w: ia, al-|le- lu- *|ia.|
 c2 c4 c2 c4 c2 c2 B4 A2 A4 A2 A4 A2 A4 A2 =B2 B4 c4 | %13
w: Ex hoc quod con- ti- net om- ni- a, sci- en- ti- am ha- bet vo- cis.|
 A4 A2 =B2 B4 c4 c2 c2 d2 c2 c4 c2 c2 c4 c2 A2 G2 c2 c4 | A4 A2 A2 =B2 B4 c2 c2 | %15
w: Glo- ri- a Pa- tri, et Fi- * li- o, et Spi- ri- tu- i Sanc- * to.|Spi- ri- tus Pa- ra- cli- tus;|
 A2 A4 A2 =B2 B4 c2 c2 |] %16
w: do- ce- bit vos om- ni- a.|
V:4
 F,4 F,2 F,2 F,4 F,2 F,4 D,2 D,4 D,2 D,4 D,2 G,2 E,4 A,4 |[M:3/2] (3:2:1F,12 | (3:2:1F,12 | %3
w: Spi- ri- tus Do- mi- ni re- ple- vit or- bem ter- ra- rum;|Al-|le-|
 (3:2:1G,12 | (3:2:1G,12 | (3:2:1F,6 (3:2:1F,6 | (3:2:1D,6 (3:2:1D,6 | (3:2:1D,6 (3:2:1F,6 | %8
w: lu-|ia,|al- le-|lu- ia,|al- le-|
 (3:2:1C,6 (3:2:1G,6 | (6:4:6C,3 C, C,3 C, C,3 C, | (6:4:5F,3 F, F,3 F, F,4 | F,8 | %12
w: lu- ia,|al- le- lu- ia, al- le-|lu- ia, al- le- lu-|ia.|
 F,2 F,4 F,2 F,4 F,2 F,2 F,4 F,2 F,4 D,2 D,4 D,2 D,4 D,2 G,2 E,4 A,4 | %13
w: Ex hoc quod con- ti- net om- ni- a, sci- en- ti- am ha- bet vo- cis.|
 D,4 D,2 G,2 E,4 A,4 F,2 F,4 F,2 F,4 F,2 F,2 F,4 E,2 D,2 C,4 F,4 | D,4 D,2 D,2 G,2 E,4 A,2 A,2 | %15
w: Glo- ri- a Pa- tri, et Fi- li- o, et Spi- ri- tu- i Sanc- to.|Spi- ri- tus Pa- ra- cli- tus;|
 D,2 D,4 D,2 G,2 E,4 A,2 A,2 |] %16
w: do- ce- bit vos om- ni- a.|

